svg/300/outlined/hourglass_top-fill.svg

<svg xmlns="http://www.w3.org/2000/svg" width="48" height="48" viewBox="0 -960 960 960"><path d="M307.231-145.385h345.538v-125.077q0-72.384-50.192-122.846T480-443.77q-72.385 0-122.577 50.462-50.192 50.462-50.192 122.846v125.077Zm-127.23 45.384v-45.384h81.846v-125.077q0-75.231 45.385-133.808T424.771-480q-72.154-18.153-117.539-76.922-45.385-58.77-45.385-133.232v-124.461h-81.846v-45.384h599.998v45.384h-81.846v124.461q0 74.462-45.385 133.232Q607.383-498.153 535.229-480q72.154 17.153 117.539 75.73 45.385 58.577 45.385 133.808v125.077h81.846v45.384H180.001Z"/></svg>

<svg xmlns="http://www.w3.org/2000/svg" width="48" height="48" viewBox="0 -960 960 960"><path d="M307.23-145.39h345.54v-125.07q0-72.39-50.19-122.85-50.2-50.46-122.58-50.46t-122.58 50.46q-50.19 50.46-50.19 122.85v125.07ZM180-100v-45.39h81.85v-125.07q0-75.23 45.38-133.81 45.39-58.58 117.54-75.73-72.15-18.15-117.54-76.92-45.38-58.77-45.38-133.23v-124.46H180V-860h600v45.39h-81.85v124.46q0 74.46-45.38 133.23-45.39 58.77-117.54 76.92 72.15 17.15 117.54 75.73 45.38 58.58 45.38 133.81v125.07H780V-100H180Z"/></svg>
